packages/katcn/src/icons/svg/eraser.svg

<svg width="24" height="25" viewBox="0 0 24 25" fill="none" xmlns="http://www.w3.org/2000/svg">
<path d="M21.9954 20.9927H13.3562L21.895 12.7952C22.5982 12.1038 23 11.2149 23 10.2273C23 9.23962 22.5982 8.35073 21.895 7.65938L18.0776 4.00505C16.6712 2.62234 14.2603 2.62234 12.8539 4.00505L2.10502 14.3754C1.40183 15.0668 1 15.9557 1 16.9433C1 17.931 1.40183 18.8199 2.10502 19.5112L5.01826 22.2767C5.52055 22.7705 6.12329 22.968 6.82648 22.968H21.9954C22.5982 22.968 23 22.573 23 21.9804C23 21.3878 22.4977 20.9927 21.9954 20.9927ZM6.82648 20.9927C6.72603 20.9927 6.52511 20.8939 6.42466 20.8939L3.51142 18.1285C3.21005 17.7334 3.00913 17.3384 3.00913 16.9433C3.00913 16.5483 3.21005 16.1532 3.51142 15.8569L9.63927 9.93098L14.3607 14.4742C14.5616 14.6717 14.7626 14.7705 15.0639 14.7705C15.3653 14.7705 15.5662 14.6717 15.7671 14.4742C16.1689 14.0791 16.1689 13.4865 15.7671 13.0915L11.0457 8.54826L14.1598 5.48654C14.5616 5.19024 15.0639 4.99271 15.4658 4.99271C15.8676 4.99271 16.3699 5.19024 16.6712 5.48654L20.4886 9.14086C20.79 9.43715 20.9909 9.83222 20.9909 10.2273C20.9909 10.6223 20.79 11.0174 20.4886 11.3137L10.4429 20.9927H6.82648Z" fill="black"/>
</svg>

<svg xmlns="http://www.w3.org/2000/svg" fill="none" viewBox="0 0 24 25"><path fill="#000" d="M21.995 20.993h-8.639l8.539-8.198c.703-.691 1.105-1.58 1.105-2.568 0-.987-.402-1.876-1.105-2.568l-3.817-3.654c-1.407-1.383-3.818-1.383-5.224 0L2.105 14.375C1.402 15.067 1 15.955 1 16.943s.402 1.877 1.105 2.568l2.913 2.766c.503.493 1.105.691 1.808.691h15.17c.602 0 1.004-.395 1.004-.988 0-.592-.502-.987-1.005-.987m-15.169 0c-.1 0-.3-.1-.401-.1L3.51 18.129c-.301-.395-.502-.79-.502-1.185s.201-.79.502-1.086L9.64 9.93l4.722 4.543a.92.92 0 0 0 .703.297.92.92 0 0 0 .703-.297.944.944 0 0 0 0-1.383l-4.721-4.543 3.114-3.061c.402-.297.904-.494 1.306-.494s.904.197 1.205.494L20.49 9.14c.301.296.502.691.502 1.086s-.201.79-.502 1.087l-10.046 9.679z"/></svg>
